!!!!SEGMENT: pl-sa--3-a-i-3--004_binder-christlieb-siegmund--missa-ex-c-sanctus.krn
!!!cenid: 17xx:590
!!!COM: Binder, Christlieb Siegmund
!!!COM-rismID:
!!!CDT: 1723-1789
!!!CNT: German
!!!OPR: Missa ex C
!!!OTL: Sanctus
!!!OMV: 004
!!!PDT: 1814
!!!AGN: Sacred; Mass
!!!SMS-siglum: PL-SA
!!!SMS-shelfmark: 3/A I 3
!!!SMS-shelfwork: 001-004 M
!!!SMS-variant:
!!!SMS-altvar:
!!!NIFC-rismSourceID: 1001036472
!!!NIFC-islandoraID:
!!!URL-pdf-islandora:
!!!URL-scan: https://bc.bdsandomierz.pl/dlibra/publication/1271/edition/1239/content @EN{Scan on Cyfrowa Biblioteka Diecezjalna w Sandomierzu} @PL{Skany w portalu Cyfrowa Biblioteka Diecezjalna w Sandomierzu}
!!!ONB-nifc: UWAGA: części Mszy: Kyrie, Gloria, Credo, Sanctus, Benedictus, Agnus Dei
!!!AIN: 1 alto 1 organ 1 tenor 2 violn 1 vox
!!!key:
**kern	**fb	**kern	**kern	**kern	**text	**kern	**text	**kern	**text
*part6	*	*part5	*part4	*part3	*part3	*part2	*part2	*part1	*part1
*group	*	*group2	*group2	*group1	*group1	*group1	*group1	*group1	*group1
*staff6	*	*staff5	*staff4	*staff3	*staff3	*staff2	*staff2	*staff1	*staff1
*Iorgan	*	*Ivioln	*Ivioln	*Itenor	*	*Ialto	*	*Ivox	*
*I"Organo	*	*I"Violino 2do	*I"Violino Primo	*I"Tenore	*	*I"Alto	*	*I"Canto	*
*I'Org.	*	*I'Vn II	*I'Vn I	*I'T.	*	*I'A.	*	*I'C.	*
*clefF4	*	*clefG2	*clefG2	*clefC4	*	*clefC3	*	*clefC1	*
*k[]	*	*k[]	*k[]	*k[]	*	*k[]	*	*k[]	*
*C:	*	*C:	*C:	*C:	*	*C:	*	*C:	*
*M4/4	*	*M4/4	*M4/4	*M4/4	*	*M4/4	*	*M4/4	*
*met(c)	*	*met(c)	*met(c)	*met(c)	*	*met(c)	*	*met(c)	*
=1	=1	=1	=1	=1	=1	=1	=1	=1	=1
*	*above	*	*	*	*	*	*	*	*
!LO:TX:b:i:t=Sanctus	!	!LO:TX:b:i:t=Sanctus	!LO:TX:b:i:t=Sanctus	!	!	!	!	!	!
!LO:TX:a:i:t=Adagio	!	!LO:TX:a:i:t=Adagio	!LO:TX:a:i:t=Adagio	!LO:TX:a:i:t=Adagio	!	!LO:TX:a:i:t=adagio	!	!LO:TX:a:i:t=adagio	!
4c\	.	8.e/L	8.g/L	4G/	ſan-	4e\	ſan-	4cc\	ſan-
.	.	32d#X/LL	32f#X/LL	.	.	.	.	.	.
.	.	32e/JJJ	32g/JJJ	.	.	.	.	.	.
*	*	*tremolo	*tremolo	*	*	*	*	*	*
8C/	.	16c/L	16e/L	8G/	-ctus.	8e\	-ctus.	8cc\	-ctus.
.	.	16c/	16e/	.	.	.	.	.	.
8r	.	16c/	16e/	8r	.	8r	.	8r	.
.	.	16c/J	16e/J	.	.	.	.	.	.
*	*	*Xtremolo	*Xtremolo	*	*	*	*	*	*
8GG/L	.	8d#L 8B/	8bL 8d 8G/	8d\	ſan-	8f\	ſan-	8b\	ſan-
8C/J	.	8c/J	8ccJ 8e 8G/	8c\	-ctus.	8e\	-ctus.	8cc\	-ctus.
4r	.	16B/LL	16d/LL	4r	.	4r	.	4r	.
.	.	16c/	16e/	.	.	.	.	.	.
.	.	16c/	16e/	.	.	.	.	.	.
.	.	16d#/JJ	16f#/JJ	.	.	.	.	.	.
=2	=2	=2	=2	=2	=2	=2	=2	=2	=2
4C/	.	16.eLL 16.G/	16.e/LL	4c\	ſan-	4g\	ſan-	4ee\	ſan-
.	.	32eK 32G/	32g/K	.	.	.	.	.	.
.	.	16.e 16.G/	16.cc/	.	.	.	.	.	.
.	.	32eJJk 32G/	32ee/JJk	.	.	.	.	.	.
4D/	X 6	16.fLL 16.G/	16.ff\LL	8d\	-ctus	8g\	-ctus	8ff\	-ctus.
.	.	32fK 32G/	32ddd\K	.	.	.	.	.	.
.	.	16.f 16.G/	16.dd\	8r	.	8r	.	8r	.
.	.	32fJJk 32G/	32ff\JJk	.	.	.	.	.	.
4E\	X 6	16.eLL 16.G/	16.ee\LL	4c\	Do-	4g\	Do-	4ee\	Do-
.	.	32eK 32G/	32gg\K	.	.	.	.	.	.
.	.	16.e 16.G/	16.cc\	.	.	.	.	.	.
.	.	32eJJk 32G/	32ee\JJk	.	.	.	.	.	.
8F\L	X 6	16.dLL 16.G/	16.dd\LL	8.B\	-mi-	8.g\	-mi-	8.dd\	-mi-
.	.	32dK 32G/	32ff\K	.	.	.	.	.	.
8G\J	X 3	16.d 16.G/	16.b\	.	.	.	.	.	.
.	.	.	.	16B\	-nus.	16g\	-nus.	16dd\	-nus
.	.	32dJJk 32G/	32dd\JJk	.	.	.	.	.	.
=3	=3	=3	=3	=3	=3	=3	=3	=3	=3
*2\right	*	*	*	*2\right	*	*2\right	*	*2\right	*
*	*	*	*tremolo	*	*	*	*	*	*
8A\L	X 6:	8c/L	8cc 8d/L	8A\	De-	8f#X\	De-	8cc\	De-
8A\	.	8A/	8cc 8d/	8d\	-us	8f#\	-us	8cc\	-us
8F#X\	5: 3:	8A/	8cc 8d/	8d\	ſa-	8a\	ſa-	8cc\	ſa-
8F#\J	.	8A/J	8cc 8d/J	8d\	-ba-	8a\	-ba-	8cc\	-ba-
*	*	*	*Xtremolo	*	*	*	*	*	*
2G;\	.	2G;/	2b 2d;/	2d;\	-oth	2g\	-oth	2b;\	-hoth.
!	!	!LO:LB:g=original	!LO:LB:g=original	!LO:LB:g=original	!	!LO:LB:g=original	!	!	!
=4||	=4||	=4||	=4||	=4||	=4	=4||	=4	=4||	=4
*M3/4	*	*M3/4	*M3/4	*M3/4	*	*M3/4	*	*M3/4	*
!LO:TX:b:i:t=Pleni	!	!	!	!	!	!	!	!	!
!LO:TX:a:i:t=all(egr)o.	!	!LO:TX:a:i:t=all(egr)o	!	!LO:TX:a:i:t=all(egr)o.	!	!LO:TX:a:i:t=all(egr)o.	!	!LO:TX:a:i:t=all(egr)o.	!
8C/L	.	8c/L|	8c/L|	2.c\	Ple-	2.e\	Ple-	2.g\	Ple-
8D/	.	8d/|	8d/|	.	.	.	.	.	.
!	!	!LO:TX:b:i:t=Pleni	!LO:TX:b:i:t=Pleni	!	!	!	!	!	!
8E/	.	8e/|	8e/|	.	.	.	.	.	.
8F/	.	8f/|	8f/|	.	.	.	.	.	.
8G/	.	8g/|	8g/|	.	.	.	.	.	.
8E/J	.	8e/J|	8e/J|	.	.	.	.	.	.
=5	=5	=5	=5	=5	=5	=5	=5	=5	=5
8F\L	.	8f/L|	8f/L|	2c\	-ni	2f\	-ni	2a\	-ni
8G\	.	8g/|	8g/|	.	.	.	.	.	.
8A\	.	8a/|	8a/|	.	.	.	.	.	.
8B-X\	.	8b-X/|	8b-X/|	.	.	.	.	.	.
8c\	.	8cc/|	8cc/|	4c\	ſunt	4f\	ſunt	4a\	ſunt
8A\J	.	8a/J|	8a/J|	.	.	.	.	.	.
!	!	!	!	!	!	!	!	!LO:LB:g=original	!
=6	=6	=6	=6	=6	=6	=6	=6	=6	=6
8D\L	.	8d/L|	8d/L|	4.d\	Cae-	4.a\	Cae-	4.cc\	Cae-
8E\J	.	8e/|	8e/|	.	.	.	.	.	.
!LO:LB:g=original	!	!	!	!	!	!	!	!	!
8F#X\L	.	8f#X/|	8f#X/|	.	.	.	.	.	.
!	!	!	!	!LO:N:vis=1	!	!	!	!	!
8G\	.	8g/|	8g/|	8d\	-li	8a\	-li	8cc\	-li
8A\	.	8a/|	8a/|	4d\	et	4a\	et	4cc\	et
8F#\J	.	8f#X/J|	8f#/J|	.	.	.	.	.	.
=7	=7	=7	=7	=7	=7	=7	=7	=7	=7
8G\L	.	8g/L|	8g/L|	2d\	ter-	2g\	ter-	2b\	ter-
8A\J	.	8a/|	8a/|	.	.	.	.	.	.
8Bn\L	.	8bn/|	8b/|	.	.	.	.	.	.
8c\J	.	8cc/|	8cc/J|	.	.	.	.	.	.
8d\L	.	8dd/|	8dd\L|	4d\	-ra	4g\	-ra	4b\	-ra
8B\J	.	8b/J|	8b\J|	.	.	.	.	.	.
=8	=8	=8	=8	=8	=8	=8	=8	=8	=8
8E\L	.	8e/L|	8e/L|	2.e\	glo-	2.b\	glo-	2.dd\	glo-
8F#X\	.	8f#X/|	8f#X/|	.	.	.	.	.	.
8G#X\	.	8g#X/|	8g#X/|	.	.	.	.	.	.
8A\	.	8a/|	8a/|	.	.	.	.	.	.
8B\	.	8b/|	8b/|	.	.	.	.	.	.
8G#\J	.	8g#X/J|	8g#X/J|	.	.	.	.	.	.
=9	=9	=9	=9	=9	=9	=9	=9	=9	=9
8AA/L	.	8A/L|	8a\L|	2e\	-ri-	2a\	-ri-	2cc\	-ri-
8BB/	.	8B/|	8b\|	.	.	.	.	.	.
8C/	.	8c/|	8cc\|	.	.	.	.	.	.
8D/	.	8d/|	8dd\|	.	.	.	.	.	.
8E/	.	8e/|	8ee\|	4e\	-a	4a\	-a	4cc\	-a
8C/J	.	8c/J|	8cc\J|	.	.	.	.	.	.
!	!	!LO:LB:g=original	!LO:LB:g=original	!	!	!	!	!	!
=10	=10	=10	=10	=10	=10	=10	=10	=10	=10
4C/	X 5	4c/	4c/	4e\	glo-	4cc\	glo-	4ee\	glo-
4D/	X 6	4d/	4d/	4d\	-ri-	4b\	-ri-	4dd\	-ri-
4D#X/	7 5	4d#X/	4d#X/	4c\	-a	4a\	-a	4cc\	-a
=11	=11	=11	=11	=11	=11	=11	=11	=11	=11
4E\	X 4	4e/	4e/	4e\	tu-	4a\	tu-	4cc\	tu-
.	6 4	.	.	.	.	.	.	.	.
4E\	5 7	4e/	4e/	4e\	-a	4g#X\	-a	4b\	-a
4r	.	4r	4r	4r	.	4r	.	4r	.
!	!	!	!	!LO:LB:g=original	!	!LO:LB:g=original	!	!	!
=12	=12	=12	=12	=12	=12	=12	=12	=12	=12
8r	.	8r	8r	2d\	O-	2.g\	O-	2ff\	O-
8GG/L	X 7n:	8G/L	8g/L	.	.	.	.	.	.
8AA/	.	8A/	8a/	.	.	.	.	.	.
8BB/J	.	8B/J	8b/J	.	.	.	.	.	.
4C/	.	4c/	4cc\	4c\	.	.	.	4ee\	.
!LO:LB:g=original	!	!	!	!	!	!	!	!	!
=13	=13	=13	=13	=13	=13	=13	=13	=13	=13
8r	.	8r	8r	2B\	-ſan-	2g\	-ſan-	2dd\	-ſan-
8G\L	X 7:	8G/L	8g/L	.	.	.	.	.	.
8A\	.	8A/	8a/	.	.	.	.	.	.
8B\J	.	8B/J	8b/J	.	.	.	.	.	.
4c\	.	4c/	4cc\	4c\	-na	4g\	-na	4cc\	-na
=14	=14	=14	=14	=14	=14	=14	=14	=14	=14
4F\	X 6	4f/	4dd\	4G/	in	4f\	in	4dd\	in
4G\	X 4	4g/	4cc\	4G/	e-	4e\	e-	4cc\	e-
4GG/	X 3	4G/	4b\	4G/	-xel-	4d\	-xel-	4b\	-xel-
=15	=15	=15	=15	=15	=15	=15	=15	=15	=15
2C/	.	2c/	2cc 2e 2G/	2G/	-cis	2e\	-cis	2cc\	-cis
4r	.	4r	4r	4r	.	4r	.	4r	.
==	==	==	==	==	==	==;;	==	==	==
*-	*-	*-	*-	*-	*-	*-	*-	*-	*-
!!!system-decoration: [g1][g2]s6
!!!RDF**kern: | = vertical stroke
!!!EED: Antoni Szymański
!!!EEV: 2020-11-09
!!!ENC: Berenika Jozajtis
!!!END: 2020-05-23
